X: 40542
T: Tommy Peoples'
R: mazurka
M: 3/4
K: Dmajor
|:FG|AF A2 dc|BG B2 ef|ge cA Bc|BA F2 FG|
AF A2 dc|BG B2 ef|ge cA Bc|d4:|
|:fg|af dA cd|c2 B2 ef|ge cA Bc|BA F2 fg|
af dA cd|c2 B2 ef|ge cA Bc|d4:|

